svgs/sharp-regular/microphone.svg

<svg xmlns="http://www.w3.org/2000/svg" viewBox="0 0 384 512"><!--! Font Awesome Pro 6.6.0 by @fontawesome - https://fontawesome.com License - https://fontawesome.com/license (Commercial License) Copyright 2024 Fonticons, Inc. --><path d="M144 48l96 0 0 208c0 26.5-21.5 48-48 48s-48-21.5-48-48l0-208zM96 0l0 48 0 208c0 53 43 96 96 96s96-43 96-96l0-208 0-48L240 0 144 0 96 0zM64 216l0-24-48 0 0 24 0 40c0 89.1 66.2 162.7 152 174.4l0 33.6-48 0-24 0 0 48 24 0 72 0 72 0 24 0 0-48-24 0-48 0 0-33.6c85.8-11.7 152-85.3 152-174.4l0-40 0-24-48 0 0 24 0 40c0 70.7-57.3 128-128 128s-128-57.3-128-128l0-40z"/></svg>

<svg xmlns="http://www.w3.org/2000/svg" viewBox="0 0 384 512"><!--! Font Awesome Pro 6.4.2 by @fontawesome - https://fontawesome.com License - https://fontawesome.com/license (Commercial License) Copyright 2023 Fonticons, Inc. --><path d="M144 48h96V256c0 26.5-21.5 48-48 48s-48-21.5-48-48V48zM96 0V48 256c0 53 43 96 96 96s96-43 96-96V48 0H240 144 96zM64 216V192H16v24 40c0 89.1 66.2 162.7 152 174.4V464H120 96v48h24 72 72 24V464H264 216V430.4c85.8-11.7 152-85.3 152-174.4V216 192H320v24 40c0 70.7-57.3 128-128 128s-128-57.3-128-128V216z"/></svg>
